X:11856
T:no name
R:reel
Z:id:hn-reel-349
M:C|
K:G
ge|:dB~B2 ABGB|dBGB AGED|GABd gaba|gedB A2ge|
dB~B2 ABGB|dBGB AGED|GABd gaba|1 gedB G2ge:|2 gedB G3A||
|:Bd~d2 edBd|gBfB efgd|Bdef geaf|gedB ~A3c|
Bd~d2 edBd|gBfB efgd|Bdef geaf|1 gedB G3A:|2 gedB G2||
